X:1
T:Carmen Suite No 1 Intermezzo
T:Andantino quasi Allegretto
T:Bizet
L:1/8
M:4/4
K:Eb
V:1 treble nm="Violin" snm="Vln."
V:1
 z2 (_d4 B>)A | (A4 G2) z2 | z2 e4 _d>c | B4 A2 z2 | z2 (e2 (e)=B)c=d | f2 ed efg=a | %6
 (=a2 b2) d'3 c' | (b=a)_ag feGB | d3 c bagf | dcAF C3 D | (E8 | E)(FG)A B2 df | (e8 | %13
 (e)f)ga b2 d'f' | e'4 d'4 | b4 c'4 | b4 e4 | f4 g4 | (e8 | e) z z2 z4 | E z z2 z4 |] %21

